X: 10464
T: Donegal, The
R: reel
M: 4/4
K: Dmajor
|:AF|D2DE FDFA|dAFA BFAF|E^DEF GFGA|(3BAG AF EGFE|
DCDE FDFA|dAFA ABde|faef dBAG|FAEF D2:|
|:A|defg afdf|afdf a2gf|e^def gfed|(3Bcd ef (3gbg fe|
defg afdf|afdf a3g|(3fgf (3efe dBAG|(3FGF (3EFE D3:|

